icons/op-color-text-24.svg

<svg width="24" height="24" viewBox="0 0 24 24" fill="none" xmlns="http://www.w3.org/2000/svg">
<path d="M20 19.4286C20 19.746 19.749 20 19.4353 20H4.56471C4.25098 20 4 19.746 4 19.4286V18.2857C4 17.9683 4.25098 17.6825 4.56471 17.6825H19.4353C19.749 17.6825 20 17.9683 20 18.2857V19.4286ZM10.5255 4H13.7255L18.8078 16.1587H15.2627L14.3843 14H9.77255L8.92549 16.1587H5.44314L10.5255 4ZM13.4431 11.3968L12.0941 7.96825L10.7451 11.3968H13.4431Z" fill="black"/>
</svg>

<svg xmlns="http://www.w3.org/2000/svg" width="24" height="24" viewBox="0 0 24 24"><path d="M20 19.429a.566.566 0 0 1-.565.571H4.565A.566.566 0 0 1 4 19.429v-1.143c0-.318.251-.603.565-.603h14.87c.314 0 .565.285.565.603v1.143ZM10.525 4h3.201l5.082 12.159h-3.545L14.384 14H9.773l-.848 2.159H5.443L10.525 4Zm2.918 7.397-1.349-3.429-1.349 3.429h2.698Z"/></svg>
